Web/img/plug.svg

<svg id="Capa_1" xmlns:rdf="http://www.w3.org/1999/02/22-rdf-syntax-ns#" style="enable-background:new 0 0 971 971" xmlns="http://www.w3.org/2000/svg" xml:space="preserve" height="512px" width="512px" version="1.1" y="0px" x="0px" xmlns:cc="http://creativecommons.org/ns#" xmlns:dc="http://purl.org/dc/elements/1.1/" viewBox="0 0 971 971"><g id="g3"><g id="g5" fill="#91DC5A"><path id="path7" d="m254.2 775.63c0.073 0.067 95.063 87.405 95.063 195.37h272.48c0-107.97 94.99-195.31 95.062-195.37 89.984-71.591 147.96-183.96 147.96-310.31 0-38.089-5.268-74.906-15.092-109.72-3-10.63-12.455-17.931-23.18-17.931l-681.98-0.002c-10.725 0-20.179 7.3-23.179 17.93-9.825 34.814-15.093 71.632-15.093 109.72 0 126.35 57.97 238.72 147.96 310.31zm161.93-272.59h138.74c13.807 0 25 11.192 25 25 0 13.807-11.193 25-25 25h-138.74c-13.807 0-25-11.193-25-25 0-13.81 11.19-25 25-25zm0 140.9h138.74c13.807 0 25 11.192 25 25 0 13.807-11.193 25-25 25h-138.74c-13.807 0-25-11.193-25-25 0-13.81 11.19-25 25-25z"/><path id="path9" d="m847.58 229.64h-141.66v-189.64c0-22.092-17.908-40-40-40-22.09 0-40 17.908-40 40v189.64h-280.85v-189.64c0-22.092-17.909-40-40-40s-40 17.908-40 40v189.64h-141.65c-21.693 0-39.279 17.586-39.279 39.279s17.586 39.279 39.279 39.279h724.16c21.693 0 39.279-17.586 39.279-39.279 0-21.69-17.59-39.28-39.28-39.28z"/></g></g></svg>

<?xml version="1.0" encoding="UTF-8" standalone="no"?>
<svg
   xmlns:dc="http://purl.org/dc/elements/1.1/"
   xmlns:cc="http://creativecommons.org/ns#"
   xmlns:rdf="http://www.w3.org/1999/02/22-rdf-syntax-ns#"
   xmlns:svg="http://www.w3.org/2000/svg"
   xmlns="http://www.w3.org/2000/svg"
   xml:space="preserve"
   style="enable-background:new 0 0 971 971;"
   viewBox="0 0 971 971"
   height="512px"
   width="512px"
   y="0px"
   x="0px"
   id="Capa_1"
   version="1.1"><metadata
     id="metadata45"><rdf:RDF><cc:Work
         rdf:about=""><dc:format>image/svg+xml</dc:format><dc:type
           rdf:resource="http://purl.org/dc/dcmitype/StillImage" /><dc:title></dc:title></cc:Work></rdf:RDF></metadata><defs
     id="defs43" /><g
     id="g3"><g
       id="g5"><path
         id="path7"
         fill="#91DC5A"
         d="M254.196,775.626c0.073,0.067,95.063,87.405,95.063,195.374H485.5h136.24c0-107.969,94.99-195.306,95.062-195.374    c89.984-71.591,147.961-183.96,147.961-310.311c0-38.089-5.268-74.906-15.092-109.719c-3-10.63-12.455-17.931-23.18-17.931    l-681.983-0.002c-10.725,0-20.179,7.3-23.179,17.93c-9.825,34.814-15.093,71.632-15.093,109.722    C106.235,591.667,164.212,704.035,254.196,775.626z M416.131,503.035h138.737c13.807,0,25,11.192,25,25c0,13.807-11.193,25-25,25    H416.131c-13.807,0-25-11.193-25-25C391.131,514.228,402.325,503.035,416.131,503.035z M416.131,643.938h138.737    c13.807,0,25,11.192,25,25c0,13.807-11.193,25-25,25H416.131c-13.807,0-25-11.193-25-25    C391.131,655.13,402.325,643.938,416.131,643.938z" /><path
         id="path9"
         fill="#91DC5A"
         d="M847.577,229.645H705.925V40c0-22.092-17.908-40-40-40c-22.09,0-40,17.908-40,40v189.645H345.074V40    c0-22.092-17.909-40-40-40c-22.091,0-40,17.908-40,40v189.645H123.422c-21.693,0-39.279,17.586-39.279,39.279    c0,21.693,17.586,39.279,39.279,39.279h724.155c21.693,0,39.279-17.586,39.279-39.279    C886.856,247.231,869.271,229.645,847.577,229.645z" /></g></g><g
     id="g11" /><g
     id="g13" /><g
     id="g15" /><g
     id="g17" /><g
     id="g19" /><g
     id="g21" /><g
     id="g23" /><g
     id="g25" /><g
     id="g27" /><g
     id="g29" /><g
     id="g31" /><g
     id="g33" /><g
     id="g35" /><g
     id="g37" /><g
     id="g39" /></svg>
